Catalina-light/actions/16/align-vertical-node.svg

<svg xmlns="http://www.w3.org/2000/svg" width="24" height="24" viewBox="0 0 24 24">
 <defs>
  <style id="current-color-scheme" type="text/css">
   .ColorScheme-Text { color:#5c616c; } .ColorScheme-Highlight { color:#5294e2; }
  </style>
 </defs>
 <path style="fill:currentColor" class="ColorScheme-Text" d="M 0.96289062 -0.00390625 A 0.49999 0.49998 0 0 0 0.5859375 0.77734375 C 1.9038375 2.7537438 2.4420875 6.2939469 2.8046875 9.9980469 L 0.99804688 9.9980469 L 0.99804688 11.990234 L 0.50195312 11.990234 L 0.001953125 11.990234 L 0.001953125 12.490234 L 0.001953125 12.990234 L 0.99804688 12.990234 L 0.99804688 14.996094 L 3.25 14.996094 C 3.4606 17.300194 3.7225656 19.427875 4.2597656 21.046875 C 4.5509656 21.924575 4.9217312 22.663919 5.4570312 23.199219 C 5.9922313 23.734619 6.7181031 24.036422 7.5332031 23.982422 C 9.5860031 23.845622 10.984341 22.592263 11.869141 20.914062 C 12.753941 19.235862 13.206334 17.117213 13.552734 15.007812 C 13.552734 15.005813 13.552034 14.996094 13.552734 14.996094 L 14.992188 14.996094 L 14.992188 12.990234 L 17.992188 12.990234 L 17.992188 14.996094 L 20.4375 14.996094 C 20.6657 16.504294 20.890994 18.018366 21.183594 19.384766 C 21.596794 21.313266 22.108016 22.956681 23.166016 23.863281 A 0.49977 0.49975 0 0 0 23.996094 23.5 L 23.998047 23.5 A 0.49977 0.49975 0 0 0 23.818359 23.103516 C 23.127059 22.511216 22.562863 21.037481 22.164062 19.175781 C 21.891262 17.902281 21.672772 16.455394 21.451172 14.996094 L 22.992188 14.996094 L 22.992188 12.990234 L 23.492188 12.990234 L 23.992188 12.990234 L 23.992188 11.990234 L 23.492188 11.990234 L 22.992188 11.990234 L 22.992188 9.9980469 L 20.533203 9.9980469 C 20.288103 9.0470469 19.990069 8.1791719 19.605469 7.4511719 C 19.224869 6.7308719 18.750141 6.1336781 18.119141 5.7675781 C 17.488241 5.4015781 16.7123 5.3005656 15.875 5.5097656 C 15.2161 5.6744656 14.718528 6.1548656 14.361328 6.7597656 C 14.004028 7.3645656 13.756081 8.1136906 13.550781 8.9628906 C 13.471781 9.2899906 13.403937 9.6436469 13.335938 9.9980469 L 9.9960938 9.9980469 L 9.9960938 11.990234 L 5.9960938 11.990234 L 5.9960938 9.9980469 L 3.8320312 9.9980469 C 3.4946313 6.2390469 2.9695687 2.5493563 1.4179688 0.22265625 A 0.49999 0.49998 0 0 0 0.96289062 -0.00390625 z M 16.560547 6.4042969 C 16.976478 6.3692766 17.309384 6.4553625 17.615234 6.6328125 C 18.023034 6.8694125 18.39335 7.3020687 18.71875 7.9179688 C 19.01595 8.4804688 19.263422 9.1992469 19.482422 9.9980469 L 17.992188 9.9980469 L 17.992188 11.990234 L 14.992188 11.990234 L 14.992188 9.9980469 L 14.353516 9.9980469 C 14.407316 9.7266469 14.459531 9.4458656 14.519531 9.1972656 C 14.712431 8.3992656 14.94545 7.7303781 15.21875 7.2675781 C 15.49205 6.8048781 15.774634 6.5654688 16.115234 6.4804688 C 16.274584 6.4406437 16.421903 6.4159703 16.560547 6.4042969 z M 5.9941406 12.990234 L 9.9941406 12.990234 L 9.9941406 14.996094 L 12.537109 14.996094 C 12.199109 17.018494 11.751575 18.992166 10.984375 20.447266 C 10.198075 21.938666 9.1603437 22.871375 7.4648438 22.984375 C 6.9085438 23.021475 6.5291094 22.861341 6.1621094 22.494141 C 5.7951094 22.127041 5.4677781 21.523922 5.2050781 20.732422 C 4.7270781 19.291922 4.4630063 17.244394 4.2539062 14.996094 L 5.9941406 14.996094 L 5.9941406 12.990234 z"/>
</svg>

<svg width="24" height="24" viewBox="0 0 24 24" xmlns="http://www.w3.org/2000/svg">
<defs>
<style id="current-color-scheme" type="text/css">.ColorScheme-Text { color:#5c616c; } .ColorScheme-Highlight { color:#5294e2; }</style>
</defs>
<path class="ColorScheme-Text" d="m0.96289-0.0039062a0.49999 0.49998 0 0 0-0.37695 0.78125c1.3179 1.9764 1.8562 5.5166 2.2188 9.2207h-1.8066v1.9922h-0.49609-0.5v0.5 0.5h0.99609v2.0059h2.252c0.2106 2.3041 0.47257 4.4318 1.0098 6.0508 0.2912 0.8777 0.66197 1.617 1.1973 2.1523 0.5352 0.5354 1.2611 0.8372 2.0762 0.7832 2.0528-0.1368 3.4511-1.3902 4.3359-3.0684 0.8848-1.6782 1.3372-3.7968 1.6836-5.9062 0-0.001999-7e-4 -0.011718 0-0.011718h1.4395v-2.0059h3v2.0059h2.4453c0.2282 1.5082 0.45349 3.0223 0.74609 4.3887 0.4132 1.9285 0.92442 3.5719 1.9824 4.4785a0.49977 0.49975 0 0 0 0.83008-0.36328h0.001953a0.49977 0.49975 0 0 0-0.17969-0.39648c-0.6913-0.5923-1.2555-2.066-1.6543-3.9277-0.2728-1.2735-0.49129-2.7204-0.71289-4.1797h1.541v-2.0059h0.5 0.5v-1h-0.5-0.5v-1.9922h-2.459c-0.2451-0.951-0.54313-1.8189-0.92773-2.5469-0.3806-0.7203-0.85533-1.3175-1.4863-1.6836-0.6309-0.366-1.4068-0.46701-2.2441-0.25781-0.6589 0.1647-1.1565 0.6451-1.5137 1.25-0.3573 0.6048-0.60525 1.3539-0.81055 2.2031-0.079 0.3271-0.14684 0.68076-0.21484 1.0352h-3.3398v1.9922h-4v-1.9922h-2.1641c-0.3374-3.759-0.86246-7.4487-2.4141-9.7754a0.49999 0.49998 0 0 0-0.45508-0.22656zm15.598 6.4082c0.41593-0.03502 0.74884 0.051066 1.0547 0.22852 0.4078 0.2366 0.77812 0.66926 1.1035 1.2852 0.2972 0.5625 0.54467 1.2813 0.76367 2.0801h-1.4902v1.9922h-3v-1.9922h-0.63867c0.0538-0.2714 0.10602-0.55218 0.16602-0.80078 0.1929-0.798 0.42592-1.4669 0.69922-1.9297 0.2733-0.4627 0.55588-0.70211 0.89648-0.78711 0.15935-0.039825 0.30667-0.064498 0.44531-0.076172zm-10.566 6.5859h4v2.0059h2.543c-0.338 2.0224-0.78553 3.9961-1.5527 5.4512-0.7863 1.4914-1.824 2.4241-3.5195 2.5371-0.5563 0.0371-0.93573-0.12303-1.3027-0.49023-0.367-0.3671-0.69433-0.97022-0.95703-1.7617-0.478-1.4405-0.74207-3.488-0.95117-5.7363h1.7402v-2.0059z" fill="currentColor"/>
</svg>
